images/back-black.svg

<svg width="24" height="24" viewBox="0 0 24 24" fill="none" xmlns="http://www.w3.org/2000/svg">
<path d="M13.4142 12L18.7071 17.2928L17.2929 18.7071L11.2929 12.7071C10.9024 12.3165 10.9024 11.6834 11.2929 11.2928L17.2929 5.29285L18.7071 6.70706L13.4142 12Z" fill="black"/>
<path d="M10.8787 12L5.58583 17.2928L7.00005 18.7071L13 12.7071C13.3906 12.3165 13.3906 11.6834 13 11.2928L7.00005 5.29285L5.58583 6.70706L10.8787 12Z" fill="black"/>
</svg>

<svg width="24" height="24" fill="none" xmlns="http://www.w3.org/2000/svg"><path d="M13.414 12l5.293 5.293-1.414 1.414-6-6a1 1 0 010-1.414l6-6 1.414 1.414L13.414 12z" fill="#000"/><path d="M10.879 12l-5.293 5.293L7 18.707l6-6a1 1 0 000-1.414l-6-6-1.414 1.414L10.879 12z" fill="#000"/></svg>
